img/vid/video-logo.svg

<svg width="344" height="60" viewBox="0 0 344 60" fill="none" xmlns="http://www.w3.org/2000/svg">
<path d="M91.2352 44.9361C91.6824 44.9361 92.0765 44.9512 92.4138 44.9853C92.751 45.0193 93.0429 45.0534 93.2892 45.095C93.5393 45.1367 93.7553 45.1821 93.9372 45.2388C94.1191 45.2956 94.2859 45.3448 94.4299 45.394L94.4526 47.7671H94.1646C94.1646 47.1123 93.941 46.5976 93.49 46.2191C93.0429 45.8444 92.3456 45.6552 91.4019 45.6552C90.6023 45.6552 89.9164 45.8747 89.348 46.3137C88.7795 46.7527 88.5029 47.294 88.518 47.9336C88.518 48.1417 88.5446 48.3537 88.6014 48.5694C88.6582 48.7851 88.753 48.9971 88.8894 49.2053C89.0258 49.4134 89.2115 49.6216 89.4541 49.8297L94.3048 53.5728C94.6724 53.8756 94.9453 54.2655 95.1196 54.7348C95.2939 55.2079 95.3924 55.6734 95.4076 56.1389C95.4227 56.8429 95.237 57.4901 94.8543 58.0805C94.4715 58.6709 93.9524 59.1402 93.3043 59.4846C92.6563 59.829 91.9401 59.9993 91.1556 59.9993C90.6895 59.9993 90.1893 59.9577 89.6549 59.8782C89.1168 59.7987 88.6166 59.6738 88.1542 59.5073C87.6881 59.3408 87.3054 59.1288 87.0022 58.8715C86.9529 58.6482 86.9302 58.3643 86.9302 58.0199C86.9302 57.6755 86.9567 57.3122 87.0135 56.9299C87.0704 56.5476 87.1462 56.2032 87.2409 55.8967H87.5289C87.4645 56.6158 87.5706 57.2327 87.8435 57.7436C88.1163 58.2546 88.5142 58.6444 89.0448 58.9055C89.5716 59.1705 90.1893 59.2916 90.8941 59.2764C91.887 59.2424 92.6677 58.9926 93.2361 58.5195C93.8046 58.0464 94.0888 57.4219 94.0888 56.6385C94.0888 56.2562 94.0206 55.908 93.8842 55.5939C93.7477 55.2835 93.5279 54.9921 93.2248 54.7196L88.4233 51.0257C87.9761 50.6435 87.6692 50.2196 87.51 49.754C87.3508 49.2885 87.2713 48.8495 87.2713 48.4332C87.2713 47.7784 87.4456 47.1842 87.8018 46.6581C88.1542 46.132 88.6279 45.7119 89.2305 45.3978C89.8292 45.0912 90.4962 44.9361 91.2352 44.9361ZM94.4033 45.1518L94.4261 45.5833H92.7207V45.1518H94.4033Z" fill="#313131"/>
<path d="M137.17 46.8065H137.098C137.082 46.4394 136.942 46.1328 136.677 45.883C136.412 45.637 136.089 45.5121 135.703 45.5121H135.415V45.2737H137.17V46.8065ZM137.17 58.1267V59.6595H135.415V59.421H135.703C136.086 59.421 136.412 59.2924 136.677 59.0388C136.942 58.7852 137.079 58.4786 137.098 58.1267H137.17ZM138.636 45.2737V59.6633H137.098V45.2737H138.636ZM147.735 52.2035V52.9226H138.371V52.2035H147.735ZM138.564 46.8065V45.2737H140.319V45.5121H140.031C139.648 45.5121 139.318 45.637 139.045 45.883C138.773 46.1328 138.636 46.4394 138.636 46.8065H138.564ZM138.564 58.1267H138.636C138.636 58.4786 138.773 58.7814 139.045 59.0388C139.318 59.2961 139.644 59.421 140.031 59.421H140.319V59.6595H138.564V58.1267ZM147.568 46.8065H147.496C147.481 46.4394 147.341 46.1328 147.076 45.883C146.81 45.637 146.488 45.5121 146.105 45.5121H145.817V45.2737H147.572V46.8065H147.568ZM147.568 58.1267V59.6595H145.814V59.421H146.102C146.484 59.421 146.81 59.2924 147.072 59.0388C147.337 58.7852 147.477 58.4786 147.492 58.1267H147.568ZM149.035 45.2737V59.6633H147.496V45.2737H149.035ZM148.959 46.8065V45.2737H150.714V45.5121H150.426C150.043 45.5121 149.717 45.637 149.456 45.883C149.19 46.1328 149.05 46.4394 149.035 46.8065H148.959ZM148.959 58.1267H149.031C149.046 58.4786 149.186 58.7814 149.452 59.0388C149.717 59.2961 150.039 59.421 150.422 59.421H150.71V59.6595H148.955V58.1267H148.959Z" fill="#313131"/>
<path d="M198.33 44.9365C199.448 44.9365 200.502 45.1144 201.487 45.474C202.472 45.8335 203.336 46.3482 204.079 47.0219C204.822 47.6956 205.402 48.4904 205.819 49.4101C206.236 50.3298 206.444 51.3479 206.444 52.4682C206.444 53.5884 206.236 54.6065 205.819 55.5262C205.402 56.4459 204.822 57.2407 204.079 57.9144C203.336 58.5843 202.472 59.1028 201.487 59.4624C200.502 59.8219 199.448 59.9998 198.33 59.9998C197.209 59.9998 196.163 59.8219 195.185 59.4624C194.207 59.1028 193.347 58.5881 192.604 57.9144C191.861 57.2445 191.278 56.4459 190.865 55.5262C190.448 54.6065 190.24 53.5884 190.24 52.4682C190.24 51.3479 190.448 50.3298 190.865 49.4101C191.282 48.4904 191.861 47.6956 192.604 47.0219C193.347 46.3482 194.211 45.8335 195.185 45.474C196.163 45.1182 197.209 44.9365 198.33 44.9365ZM198.33 59.2769C199.513 59.2769 200.589 58.9893 201.548 58.414C202.507 57.8387 203.268 57.0401 203.829 56.0145C204.39 54.9926 204.67 53.808 204.67 52.4644C204.67 51.1056 204.39 49.9172 203.829 48.9029C203.268 47.8886 202.507 47.0938 201.548 46.5185C200.589 45.9433 199.517 45.6556 198.33 45.6556C197.163 45.6556 196.098 45.9433 195.136 46.5185C194.177 47.0938 193.415 47.8886 192.854 48.9029C192.293 49.9172 192.013 51.1056 192.013 52.4644C192.013 53.808 192.293 54.9926 192.854 56.0145C193.415 57.0363 194.177 57.8387 195.136 58.414C196.098 58.9893 197.163 59.2769 198.33 59.2769Z" fill="#313131"/>
<path d="M247.747 46.7838H247.698C247.683 46.4167 247.543 46.1139 247.277 45.8717C247.012 45.6332 246.69 45.5121 246.303 45.5121H245.966V45.2737H248.054L247.747 46.7838ZM247.747 58.1267L248.058 59.6595H245.97V59.421H246.307C246.69 59.421 247.016 59.2924 247.281 59.0388C247.546 58.7852 247.683 58.4786 247.702 58.1267H247.747ZM249.237 45.2737V59.6633H247.698V45.2737H249.237ZM249.165 58.1267H249.214C249.229 58.4786 249.369 58.7814 249.634 59.0388C249.9 59.2961 250.222 59.421 250.605 59.421C250.62 59.421 250.733 59.421 250.942 59.421V59.6595H248.854L249.165 58.1267ZM251.59 45.2737C252.708 45.2737 253.678 45.4364 254.497 45.7657C255.311 46.095 255.944 46.5643 256.395 47.1812C256.842 47.7981 257.066 48.5286 257.066 49.3763C257.066 50.2885 256.861 51.0681 256.452 51.7153C256.043 52.3625 255.505 52.8583 254.83 53.2027C254.156 53.5471 253.413 53.7137 252.598 53.7061C251.783 53.6985 250.965 53.4941 250.15 53.093V52.8545C250.677 52.9491 251.15 52.9946 251.567 52.987C251.984 52.9794 252.424 52.9075 252.89 52.7713C253.352 52.635 253.792 52.3852 254.197 52.0143C254.606 51.6472 254.929 51.1173 255.167 50.4323C255.232 50.2582 255.273 50.05 255.3 49.8078C255.323 49.5694 255.338 49.3461 255.338 49.1379C255.338 48.1614 255.001 47.3969 254.33 46.8368C253.659 46.2766 252.731 45.9966 251.544 45.9966H249.191C249.112 45.7581 249.021 45.5159 248.926 45.2775H251.59V45.2737Z" fill="#313131"/>
<path d="M0.958776 27.3372H0V16.1609H0.958776C0.958776 19.166 2.03882 21.7244 4.19891 23.8363C6.359 25.9482 8.99279 27.0004 12.1003 27.0004C13.3812 27.0004 14.412 26.6257 15.1964 25.8725C15.9809 25.1231 16.375 24.1202 16.375 22.875C16.375 21.4671 15.4617 20.2711 13.6389 19.2795C12.646 18.7686 10.9331 17.9624 8.50014 16.8573C6.0672 15.7521 4.35429 14.8173 3.3614 14.0528C1.37564 12.5199 0.504021 10.4875 0.742767 7.96312C0.981514 5.4387 1.9365 3.47821 3.60015 2.08921C5.2638 0.696422 7.14724 0.0038147 9.24291 0.0038147C11.3424 0.0038147 13.2296 0.283885 14.9122 0.844027C16.591 1.40417 17.546 1.68424 17.7696 1.68424C18.41 1.68424 18.7284 1.1241 18.7284 0.0038147H19.6871V8.78063H18.7284C18.7284 6.4795 17.8795 4.59849 16.1817 3.14515C14.484 1.69181 12.3087 0.961354 9.65219 0.961354C8.46604 0.961354 7.53758 1.30577 6.86681 1.9908C6.19226 2.67963 5.85877 3.43657 5.85877 4.26922C5.85877 5.10186 5.96867 5.74148 6.19226 6.18808C6.41585 6.63468 6.80997 7.04343 7.37083 7.41055C7.9317 7.77767 8.42056 8.07288 8.83363 8.29996C9.2467 8.52705 9.91746 8.82226 10.827 9.2083C11.7403 9.59056 12.3694 9.86306 12.7256 10.022C14.484 10.8206 15.5261 11.2937 15.8482 11.4375C16.1666 11.5813 16.6327 11.8122 17.2428 12.1339C17.853 12.4556 18.3077 12.7432 18.6109 12.9968C18.914 13.2542 19.3082 13.5721 19.7857 13.9544C20.2669 14.3366 20.6194 14.7302 20.843 15.1276C21.0666 15.5288 21.2901 15.983 21.5175 16.4939C21.9647 17.5196 22.1239 18.7156 21.9988 20.0894C21.7411 22.6782 20.7748 24.6538 19.0922 26.0126C17.4096 27.3751 15.1434 28.0563 12.2936 28.0563C9.73177 28.0563 7.18893 27.4015 4.65746 26.0882C3.79342 25.6416 3.15297 25.4183 2.73611 25.4183C1.54996 25.4183 0.958776 26.058 0.958776 27.3372Z" fill="#313131"/>
<path d="M70.5477 8.63353C70.5477 5.78741 70.074 3.87611 69.1304 2.90344C68.1868 1.92697 66.417 1.43874 63.8211 1.43874H62.3811V26.3802H65.7425V27.3377H51.8156V26.3802H55.177V1.43874H53.7369C51.1751 1.43874 49.4205 1.92697 48.4769 2.90344C47.5333 3.8799 47.0596 5.79119 47.0596 8.63353H46.1008V0.477417H71.5065V8.62975H70.5477V8.63353Z" fill="#313131"/>
<path d="M124.095 26.3796V27.3372H111.464V26.3796H114.299L111.082 19.7109H101.38L98.5947 26.3796H102.388V27.3372H94.176V26.3796H97.3934L108.391 0H109.592L121.791 26.3796H124.095ZM101.812 18.7042H110.6L105.894 8.92063L101.812 18.7042Z" fill="#313131"/>
<path d="M175.721 27.8183H173.607C169.605 27.8183 166.819 26.9554 165.251 25.2295C164 23.8859 163.151 22.1109 162.704 19.9044C162.511 18.9771 162.302 18.1294 162.079 17.3611C161.567 15.6352 160.525 14.7723 158.956 14.7723H156.841V26.3801H159.244V27.3376H147.238V26.3801H149.641V1.43865H147.238V0.48111H159.873C168.036 0.48111 172.121 2.86171 172.121 7.6267C172.121 9.51528 171.431 11.0481 170.056 12.2327C168.676 13.4174 166.918 14.0078 164.773 14.0078V14.3446C167.975 14.3446 170.2 16.4565 171.45 20.6765C172.091 22.9133 172.739 24.5066 173.394 25.449C174.05 26.3914 174.827 26.8645 175.721 26.8645V27.8183ZM156.849 1.43865V13.8147C160.051 13.8147 162.196 13.353 163.284 12.422C164.371 11.4947 164.917 9.94296 164.917 7.77052C164.917 5.59808 164.356 3.99713 163.234 2.97525C162.113 1.94959 159.987 1.43865 156.849 1.43865Z" fill="#313131"/>
<path d="M197.91 1.43865V0.48111H211.981V1.43865H209.627L216.206 16.2597L219.28 8.63344L216.062 1.43865H214.239V0.48111H227.397V1.43865H225.138L231.573 16.0667L236.663 1.43865H232.824V0.48111H241.085V1.43865H237.818L228.837 27.3376H227.685L227.878 26.8116L227.639 27.3376L219.909 9.97324L212.939 27.3376H211.787L200.214 1.43865H197.91Z" fill="#313131"/>
<path d="M293.192 26.3796V27.3372H280.561V26.3796H283.396L280.179 19.7109H270.477L267.692 26.3796H271.485V27.3372H263.273V26.3796H266.491L277.488 0H278.689L290.888 26.3796H293.192ZM270.905 18.7042H279.694L274.987 8.92063L270.905 18.7042Z" fill="#313131"/>
<path d="M335.595 27.3377H324.548V26.3802H326.469V16.256L317.874 1.43496H315.377V0.477417H328.822V1.43496H326.469L333.192 13.5234L339.437 1.43496H335.595V0.477417H344V1.43496H340.639L333.673 14.9616V26.3764H335.595V27.3377Z" fill="#313131"/>
</svg>

<svg width="344" height="60" fill="none" xmlns="http://www.w3.org/2000/svg"><path d="M91.235 44.936c.447 0 .841.015 1.179.05.337.033.629.067.875.109.25.042.466.087.648.144.182.057.349.106.493.155l.023 2.373h-.288c0-.655-.224-1.17-.675-1.548-.447-.375-1.144-.564-2.088-.564-.8 0-1.486.22-2.054.659-.569.439-.845.98-.83 1.62 0 .208.027.42.083.635.057.216.152.428.288.636.137.208.323.417.565.625l4.85 3.743c.368.303.641.693.816 1.162.174.473.272.938.288 1.404a3.362 3.362 0 01-.554 1.941 4.112 4.112 0 01-1.55 1.405 4.505 4.505 0 01-2.148.514c-.467 0-.967-.041-1.501-.12a7.776 7.776 0 01-1.5-.372c-.467-.166-.85-.378-1.153-.636a4.072 4.072 0 01-.072-.851c0-.345.027-.708.083-1.09.057-.382.133-.727.228-1.033h.288c-.064.719.042 1.336.315 1.847.272.51.67.9 1.2 1.162.528.264 1.145.386 1.85.37.993-.034 1.774-.283 2.342-.757.569-.473.853-1.097.853-1.88 0-.383-.068-.731-.205-1.045a2.589 2.589 0 00-.66-.874l-4.8-3.694c-.448-.383-.755-.806-.914-1.272a4.08 4.08 0 01-.239-1.32c0-.656.175-1.25.53-1.776a3.788 3.788 0 011.43-1.26 4.33 4.33 0 012.004-.462zm3.168.216l.023.431h-1.705v-.431h1.682zM137.17 46.806h-.072a1.3 1.3 0 00-.421-.923 1.377 1.377 0 00-.974-.37h-.288v-.24h1.755v1.533zm0 11.32v1.534h-1.755v-.239h.288c.383 0 .709-.129.974-.382.265-.254.402-.56.421-.912h.072zm1.466-12.852v14.39h-1.538v-14.39h1.538zm9.099 6.93v.719h-9.364v-.72h9.364zm-9.171-5.398v-1.532h1.755v.238h-.288c-.383 0-.713.125-.986.371-.272.25-.409.556-.409.923h-.072zm0 11.32h.072c0 .353.137.655.409.913.273.257.599.382.986.382h.288v.239h-1.755v-1.533zm9.004-11.32h-.072a1.294 1.294 0 00-.42-.923 1.377 1.377 0 00-.971-.37h-.288v-.24h1.755v1.533h-.004zm0 11.32v1.534h-1.754v-.239h.288c.382 0 .708-.129.97-.382.265-.254.405-.56.42-.912h.076zm1.467-12.852v14.39h-1.539v-14.39h1.539zm-.076 1.532v-1.532h1.755v.238h-.288c-.383 0-.709.125-.97.371-.266.25-.406.556-.421.923h-.076zm0 11.32h.072c.015.353.155.655.421.913.265.257.587.382.97.382h.288v.239h-1.755v-1.533h.004zM198.33 44.937a9.14 9.14 0 013.157.537c.985.36 1.849.874 2.592 1.548a7.204 7.204 0 011.74 2.388c.417.92.625 1.938.625 3.058 0 1.12-.208 2.138-.625 3.058a7.204 7.204 0 01-1.74 2.388 7.853 7.853 0 01-2.592 1.548 9.142 9.142 0 01-3.157.538 9.034 9.034 0 01-3.145-.538 7.81 7.81 0 01-2.581-1.548 7.108 7.108 0 01-1.739-2.388c-.417-.92-.625-1.938-.625-3.058 0-1.12.208-2.138.625-3.058a7.201 7.201 0 011.739-2.388 7.848 7.848 0 012.581-1.548 9.12 9.12 0 013.145-.537zm0 14.34c1.183 0 2.259-.288 3.218-.863.959-.575 1.72-1.374 2.281-2.4.561-1.021.841-2.206.841-3.55 0-1.358-.28-2.547-.841-3.561a6.25 6.25 0 00-2.281-2.384c-.959-.576-2.031-.863-3.218-.863-1.167 0-2.232.287-3.194.863a6.253 6.253 0 00-2.282 2.384c-.561 1.014-.841 2.203-.841 3.561 0 1.344.28 2.529.841 3.55.561 1.022 1.323 1.825 2.282 2.4.962.575 2.027.863 3.194.863zM247.747 46.784h-.049a1.253 1.253 0 00-.421-.912 1.4 1.4 0 00-.974-.36h-.337v-.238h2.088l-.307 1.51zm0 11.343l.311 1.532h-2.088v-.238h.337c.383 0 .709-.129.974-.382.265-.254.402-.56.421-.912h.045zm1.49-12.853v14.39h-1.539v-14.39h1.539zm-.072 12.853h.049c.015.352.155.654.42.912.266.257.588.382.971.382h.337v.239h-2.088l.311-1.533zm2.425-12.853c1.118 0 2.088.162 2.907.492.814.329 1.447.798 1.898 1.415.447.617.671 1.348.671 2.195 0 .913-.205 1.692-.614 2.34a4.082 4.082 0 01-1.622 1.487c-.674.344-1.417.51-2.232.503-.815-.008-1.633-.212-2.448-.613v-.239c.527.095 1 .14 1.417.133.417-.008.857-.08 1.323-.216a3.323 3.323 0 001.307-.757c.409-.367.732-.897.97-1.582.065-.174.106-.382.133-.624.023-.239.038-.462.038-.67 0-.977-.337-1.741-1.008-2.301s-1.599-.84-2.786-.84h-2.353c-.079-.239-.17-.481-.265-.72h2.664v-.003zM.959 27.337H0V16.161h.959c0 3.005 1.08 5.563 3.24 7.675S8.993 27 12.1 27c1.281 0 2.312-.374 3.096-1.128.785-.749 1.179-1.752 1.179-2.997 0-1.408-.913-2.604-2.736-3.596-.993-.51-2.706-1.317-5.139-2.422-2.433-1.105-4.146-2.04-5.139-2.804C1.376 12.52.504 10.487.743 7.963.982 5.44 1.937 3.478 3.6 2.09 5.264.696 7.147.004 9.243.004c2.1 0 3.987.28 5.67.84 1.678.56 2.633.84 2.857.84.64 0 .958-.56.958-1.68h.96V8.78h-.96c0-2.302-.849-4.183-2.546-5.636C14.484 1.692 12.309.961 9.652.961c-1.186 0-2.114.345-2.785 1.03-.675.689-1.008 1.446-1.008 2.278 0 .833.11 1.472.333 1.92.224.446.618.854 1.179 1.222.56.367 1.05.662 1.463.889.413.227 1.083.522 1.993.908.913.383 1.542.655 1.899.814 1.758.799 2.8 1.272 3.122 1.415.319.144.785.375 1.395.697.61.322 1.065.61 1.368.863.303.257.697.575 1.175.957.48.383.833.776 1.057 1.174.224.4.447.855.674 1.366.448 1.026.607 2.222.482 3.595-.258 2.59-1.224 4.565-2.907 5.924-1.682 1.362-3.949 2.043-6.798 2.043-2.562 0-5.105-.655-7.637-1.968-.864-.446-1.504-.67-1.92-.67-1.187 0-1.778.64-1.778 1.92zM70.548 8.634c0-2.847-.474-4.758-1.418-5.73-.943-.977-2.713-1.465-5.309-1.465h-1.44V26.38h3.362v.958H51.816v-.958h3.361V1.44h-1.44c-2.562 0-4.317.488-5.26 1.464-.944.977-1.417 2.888-1.417 5.73h-.96V.478h25.407V8.63h-.96v.004zM124.095 26.38v.957h-12.631v-.957h2.835l-3.217-6.67h-9.702l-2.785 6.67h3.793v.957h-8.212v-.957h3.217L108.391 0h1.201l12.199 26.38h2.304zm-22.283-7.676h8.788l-4.706-9.783-4.082 9.783zM175.721 27.818h-2.114c-4.002 0-6.788-.863-8.356-2.588-1.251-1.344-2.1-3.12-2.547-5.326a34.037 34.037 0 00-.625-2.543c-.512-1.726-1.554-2.589-3.123-2.589h-2.115V26.38h2.403v.958h-12.006v-.958h2.403V1.44h-2.403V.48h12.635c8.163 0 12.248 2.38 12.248 7.146 0 1.888-.69 3.421-2.065 4.606-1.38 1.184-3.138 1.775-5.283 1.775v.337c3.202 0 5.427 2.111 6.677 6.332.641 2.236 1.289 3.83 1.944 4.772.656.942 1.433 1.415 2.327 1.415v.954zm-18.872-26.38v12.377c3.202 0 5.347-.462 6.435-1.393 1.087-.927 1.633-2.479 1.633-4.651 0-2.173-.561-3.774-1.683-4.796-1.121-1.025-3.247-1.536-6.385-1.536zM197.91 1.439V.48h14.071v.958h-2.354l6.579 14.82 3.074-7.626-3.218-7.194h-1.823V.48h13.158v.958h-2.259l6.435 14.628 5.09-14.628h-3.839V.48h8.261v.958h-3.267l-8.981 25.899h-1.152l.193-.526-.239.526-7.73-17.365-6.97 17.365h-1.152l-11.573-25.9h-2.304zM293.192 26.38v.957h-12.631v-.957h2.835l-3.217-6.67h-9.702l-2.785 6.67h3.793v.957h-8.212v-.957h3.218L277.488 0h1.201l12.199 26.38h2.304zm-22.287-7.676h8.789l-4.707-9.783-4.082 9.783zM335.595 27.338h-11.047v-.958h1.921V16.256l-8.595-14.821h-2.497V.477h13.445v.958h-2.353l6.723 12.088 6.245-12.088h-3.842V.477H344v.958h-3.361l-6.966 13.527v11.414h1.922v.962z" fill="#313131"/></svg>
